X:1
T:Title
%%score 1 { ( 2 5 ) | ( 3 4 ) }
L:1/8
Q:1/4=100
M:3/4
K:F
V:1 treble nm="Akkordion"
V:2 treble nm="Grand Piano"
V:5 treble 
V:3 bass 
V:4 bass 
V:1
 F2 F2 F2 | F4 F2 | G3 A B2 | A6 | A2 A2 A2 | c4 A2 | G4 G2 | F4 z2 | F2 F2 F2 | F4 F2 | G3 A B2 | %11
w: A.~B.~Ponsonby * *|||||||||||
 A6 | D2 F2 A2 | d4 A=B | c4 =B2 | A4 z2 | c2 c2 c2 | c6 | B2 B2 B2 | B6 | A2 A2 A2 | A3 D cB | %22
w: |||||||||||
 A4 G2 | F6 |] %24
w: ||
V:2
 F2 F2 F2 | F4 [A,DF]2 | [G,DFG]4 [EB]2 | [CFA]6 | [CFA]2 [CFA]2 [CFA]2 | [CEc]4 [EA]2 | %6
 [G,DG]4 [B,EG]2 | [A,F]4 z2 | F2 F2 F2 | F4 [A,DF]2 | [G,DFG]4 [DFB]2 | [^CEA]6 | D2 F2 A2 | %13
 d4 A2 | c4 z2 | [CEA]4 z2 | [EAc]2 [Ac]2 [Ac]2 | c2 z2 .B2 | [B,DB]2 [GB]2 [GB]2 | B2 z2 .A2 | %20
 [A,FA]2 [FA]2 [CGA]2 | A4 .[Ac]2 | A4 z2 | [A,F]6 |] %24
V:3
 [F,A,C]2 [F,A,C]2 [E,A,C]2 | [D,A,D]4 C,2 | z2 z A [C,G,C]2 | [F,,F,]6 | F,2 E,2 F,2 | %5
 A,2 A,,2 C2 | B,,2 G,,2 C,2 | [F,,C,]4 z2 | [F,A,C]2 [F,A,C]2 [E,A,C]2 | [D,A,D]4 C,2 | %10
 z2 z A [G,,G,]2 | [A,,E,]6 | D,2 F,2 A,2 | [FA]2 F2 F2 | [EA]2 E2[K:bass] E,2 | A,4 z2 | %16
 [A,,E,]2 [A,E]2 [G,_E]2 | [^F,,^F,]4 [D,,D,]2 | [G,,D,]2 [G,D]2 [F,^C]2 | [E,,E,]4 [C,,C,]2 | %20
 [F,,C,]2 [F,C]2 [_E,,_E,]2 | [D,,D,]2 E,^F, z G | z2 =B,2 [C,,C,]2 | [F,,C,]6 |] %24
V:4
 x6 | x6 | B,,4 z2 | x6 | x6 | x6 | x6 | x6 | x6 | x6 | B,,4 z2 | x6 | x6 | D4 z2 | x4[K:bass] x2 | %15
 x6 | x6 | x6 | x6 | x6 | x6 | z2 z2 [G,,G,]2 | C,4 z2 | x6 |] %24
V:5
 x6 | x6 | x6 | x6 | x6 | x6 | x6 | x6 | x6 | x6 | x6 | x6 | x6 | z2 A2 z =B | z2 A2 [D_A=B]2 | %15
 x6 | x6 | [DA]2- [D-A-d][DAc] [C^F]-[CFA] | x6 | [CG]2- [C-G-c][CGB] B,-[B,G] | x6 | %21
 [C^F]3- [CDF] D-[DB] | [CF]2 D2 [B,EG]2 | x6 |] %24

